src/lib/packages/icons/src/assets/filled/buildings-alt.svg

<svg width="24" height="24" viewBox="0 0 24 24" fill="none" xmlns="http://www.w3.org/2000/svg">
<path d="M22 20.25H21.5V11C21.5 9.782 20.938 9.11792 19.822 9.01392C19.65 8.99792 19.5 9.14512 19.5 9.31812V20.25H18V6C18 4 17 3 15 3H9C7 3 6 4 6 6V20.25H4.5V9.31812C4.5 9.14512 4.34998 8.99792 4.17798 9.01392C3.06198 9.11792 2.5 9.782 2.5 11V20.25H2C1.59 20.25 1.25 20.59 1.25 21C1.25 21.41 1.59 21.75 2 21.75H22C22.41 21.75 22.75 21.41 22.75 21C22.75 20.59 22.41 20.25 22 20.25ZM9.5 6.25H10.5C10.914 6.25 11.25 6.586 11.25 7C11.25 7.414 10.914 7.75 10.5 7.75H9.5C9.086 7.75 8.75 7.414 8.75 7C8.75 6.586 9.086 6.25 9.5 6.25ZM9.5 9.25H10.5C10.914 9.25 11.25 9.586 11.25 10C11.25 10.414 10.914 10.75 10.5 10.75H9.5C9.086 10.75 8.75 10.414 8.75 10C8.75 9.586 9.086 9.25 9.5 9.25ZM8.75 13C8.75 12.586 9.086 12.25 9.5 12.25H10.5C10.914 12.25 11.25 12.586 11.25 13C11.25 13.414 10.914 13.75 10.5 13.75H9.5C9.086 13.75 8.75 13.414 8.75 13ZM14 20.25H10V18C10 16.896 10.896 16 12 16C13.105 16 14 16.896 14 18V20.25ZM14.5 13.75H13.5C13.086 13.75 12.75 13.414 12.75 13C12.75 12.586 13.086 12.25 13.5 12.25H14.5C14.914 12.25 15.25 12.586 15.25 13C15.25 13.414 14.914 13.75 14.5 13.75ZM14.5 10.75H13.5C13.086 10.75 12.75 10.414 12.75 10C12.75 9.586 13.086 9.25 13.5 9.25H14.5C14.914 9.25 15.25 9.586 15.25 10C15.25 10.414 14.914 10.75 14.5 10.75ZM14.5 7.75H13.5C13.086 7.75 12.75 7.414 12.75 7C12.75 6.586 13.086 6.25 13.5 6.25H14.5C14.914 6.25 15.25 6.586 15.25 7C15.25 7.414 14.914 7.75 14.5 7.75Z" fill="currentColor"/>
</svg>

<svg xmlns="http://www.w3.org/2000/svg" width="24" height="24" fill="none"><path fill="currentColor" d="M22 20.25h-.5V11c0-1.218-.562-1.882-1.678-1.986a.304.304 0 0 0-.322.304V20.25H18V6c0-2-1-3-3-3H9C7 3 6 4 6 6v14.25H4.5V9.318c0-.173-.15-.32-.322-.304C3.062 9.118 2.5 9.782 2.5 11v9.25H2c-.41 0-.75.34-.75.75s.34.75.75.75h20c.41 0 .75-.34.75-.75s-.34-.75-.75-.75Zm-12.5-14h1a.75.75 0 0 1 0 1.5h-1a.75.75 0 0 1 0-1.5Zm0 3h1a.75.75 0 0 1 0 1.5h-1a.75.75 0 0 1 0-1.5ZM8.75 13a.75.75 0 0 1 .75-.75h1a.75.75 0 0 1 0 1.5h-1a.75.75 0 0 1-.75-.75ZM14 20.25h-4V18a2 2 0 0 1 4 0v2.25Zm.5-6.5h-1a.75.75 0 0 1 0-1.5h1a.75.75 0 0 1 0 1.5Zm0-3h-1a.75.75 0 0 1 0-1.5h1a.75.75 0 0 1 0 1.5Zm0-3h-1a.75.75 0 0 1 0-1.5h1a.75.75 0 0 1 0 1.5Z"/></svg>
